_inc/systems/logos/auto-huntingandfishing.svg

<?xml version="1.0" encoding="utf-8"?>
<svg version="1.1" id="Warstwa_1" x="0px" y="0px" viewBox="0 0 200 40" xmlns="http://www.w3.org/2000/svg">
  <path d="M 58.129 23.087 C 58.129 24.289 58.133 25.495 58.125 26.699 C 58.125 26.784 58.083 26.874 58.043 26.957 C 57.341 28.335 56.635 29.714 55.932 31.095 C 55.462 32.022 55.654 32.708 56.532 33.258 C 56.87 33.47 57.211 33.673 57.539 33.894 C 57.636 33.961 57.745 34.087 57.748 34.189 C 57.768 34.796 57.758 35.405 57.758 36.107 C 56.111 35.08 54.531 34.093 52.928 33.09 C 53.855 31.267 54.767 29.482 55.717 27.616 C 55.631 27.56 55.532 27.513 55.455 27.444 C 54.769 26.841 54.101 26.215 53.398 25.631 C 52.633 24.999 51.526 25.085 50.834 25.787 C 50.144 26.49 50.095 27.6 50.721 28.355 C 50.761 28.402 50.81 28.438 50.893 28.514 C 51.003 28.166 51.098 27.858 51.195 27.55 C 51.222 27.547 51.244 27.543 51.271 27.54 C 51.744 28.673 52.221 29.806 52.696 30.94 C 52.676 30.956 52.656 30.972 52.633 30.985 C 52.563 30.942 52.483 30.906 52.424 30.853 C 51.768 30.276 51.105 29.704 50.459 29.113 C 49.366 28.12 49.26 26.483 50.205 25.4 C 51.171 24.289 52.808 24.171 53.948 25.142 C 54.643 25.734 55.317 26.35 56.032 26.99 C 56.711 25.661 57.377 24.362 58.043 23.061 C 58.072 23.074 58.099 23.081 58.129 23.087 Z" style="fill: rgb(204, 204, 204);"/>
  <path d="M 66.538 30.999 C 67.034 29.813 67.505 28.683 67.979 27.553 C 68.002 27.55 68.029 27.547 68.051 27.547 C 68.154 27.858 68.254 28.166 68.36 28.491 C 69.413 27.576 69.042 25.81 67.72 25.333 C 67.034 25.085 66.376 25.181 65.819 25.661 C 65.024 26.341 64.252 27.046 63.44 27.769 C 64.341 29.535 65.239 31.297 66.153 33.09 C 64.579 34.073 63.022 35.047 61.392 36.068 C 61.392 35.541 61.429 35.084 61.382 34.633 C 61.333 34.15 61.485 33.835 61.936 33.636 C 62.188 33.523 62.413 33.352 62.645 33.199 C 63.383 32.722 63.596 31.986 63.201 31.204 C 62.529 29.869 61.836 28.54 61.17 27.202 C 61.065 26.987 60.998 26.728 60.995 26.486 C 60.978 25.377 60.988 24.267 60.988 23.156 C 61.014 23.146 61.041 23.137 61.067 23.127 C 61.737 24.435 62.406 25.744 63.092 27.083 C 63.188 27.01 63.274 26.953 63.347 26.884 C 64.013 26.297 64.662 25.688 65.342 25.121 C 66.76 23.942 68.873 24.476 69.513 26.191 C 69.897 27.222 69.722 28.199 68.93 28.981 C 68.224 29.677 67.448 30.307 66.703 30.962 C 66.687 30.976 66.656 30.972 66.538 30.999 Z" style="fill: rgb(204, 204, 204);"/>
  <path d="M 60.581 36.654 C 59.895 36.654 59.226 36.654 58.503 36.654 C 58.503 36.2 58.507 35.756 58.503 35.313 C 58.497 33.815 58.484 32.321 58.48 30.823 C 58.48 29.935 58.49 29.05 58.51 28.163 C 58.513 27.984 58.553 27.791 58.636 27.636 C 58.781 27.358 58.848 27.076 58.835 26.762 C 58.818 26.297 58.831 25.837 58.831 25.34 C 59.305 25.34 59.759 25.34 60.249 25.34 C 60.259 25.426 60.283 25.526 60.286 25.625 C 60.289 26.009 60.299 26.394 60.286 26.778 C 60.275 27.076 60.332 27.348 60.478 27.616 C 60.557 27.759 60.604 27.941 60.604 28.104 C 60.61 30.869 60.61 33.64 60.608 36.406 C 60.604 36.482 60.59 36.558 60.581 36.654 Z" style="fill: rgb(204, 204, 204);"/>
  <path d="M 64.126 35.153 C 64.361 35.004 64.547 34.885 64.755 34.753 C 65.269 35.206 65.769 35.654 66.272 36.101 C 66.422 36.233 66.574 36.359 66.717 36.499 C 66.918 36.7 67.141 36.767 67.436 36.727 C 68.25 36.618 68.87 37.277 68.721 38.062 C 68.611 38.632 68.081 39.043 67.515 38.99 C 66.928 38.937 66.425 38.463 66.481 37.89 C 66.531 37.36 66.296 37.059 65.931 36.753 C 65.332 36.253 64.762 35.72 64.126 35.153 Z M 68.075 37.853 C 68.078 37.585 67.876 37.37 67.618 37.366 C 67.34 37.36 67.104 37.589 67.111 37.857 C 67.117 38.105 67.349 38.33 67.601 38.33 C 67.856 38.33 68.071 38.119 68.075 37.853 Z" style="fill: rgb(204, 204, 204);"/>
  <path d="M 54.442 34.822 C 54.643 34.952 54.832 35.074 55.137 35.269 C 54.992 35.356 54.876 35.402 54.789 35.478 C 54.213 35.985 53.643 36.501 53.063 37.005 C 52.858 37.185 52.755 37.383 52.782 37.665 C 52.798 37.843 52.788 38.039 52.739 38.211 C 52.573 38.765 51.98 39.099 51.423 38.974 C 50.847 38.844 50.473 38.328 50.529 37.741 C 50.585 37.151 51.062 36.657 51.645 36.734 C 52.172 36.803 52.491 36.574 52.828 36.26 C 53.348 35.773 53.892 35.309 54.442 34.822 Z M 52.146 37.851 C 52.146 37.592 51.933 37.38 51.669 37.376 C 51.397 37.374 51.195 37.565 51.188 37.837 C 51.178 38.119 51.4 38.344 51.675 38.334 C 51.93 38.328 52.149 38.105 52.146 37.851 Z" style="fill: rgb(204, 204, 204);"/>
  <path d="M 60.275 24.641 C 59.782 24.641 59.329 24.641 58.852 24.641 C 58.765 23.445 58.848 22.299 59.348 21.212 C 59.388 21.13 59.481 21.069 59.55 21 C 59.62 21.069 59.719 21.126 59.756 21.212 C 60.044 21.898 60.259 22.606 60.275 23.359 C 60.283 23.776 60.275 24.197 60.275 24.641 Z" style="fill: rgb(204, 204, 204);"/>
  <path d="M 58.543 37.946 C 58.543 37.705 58.543 37.512 58.543 37.291 C 59.222 37.291 59.888 37.291 60.571 37.291 C 60.571 37.512 60.571 37.715 60.571 37.946 C 59.898 37.946 59.236 37.946 58.543 37.946 Z" style="fill: rgb(204, 204, 204);"/>
  <path d="M 31.148 19.2 L 32.288 12.57 L 27.998 12.57 L 26.858 19.2 L 21.158 19.2 L 24.458 0.45 L 30.158 0.45 L 28.988 7.08 L 33.278 7.08 L 34.448 0.45 L 40.148 0.45 L 36.848 19.2 L 31.148 19.2 Z" style="white-space: pre; fill: rgb(255, 255, 255);"/>
  <path d="M 142.635 12 L 143.385 7.68 L 147.825 7.68 L 148.665 3.03 L 152.745 3.03 L 151.905 7.68 L 156.375 7.68 L 155.625 12 L 151.155 12 L 150.315 16.68 L 146.235 16.68 L 147.075 12 L 142.635 12 Z" style="white-space: pre; fill: rgb(204, 204, 204);"/>
  <path d="M 132.366 13.68 L 132.516 12.87 L 131.076 12.87 L 131.886 8.28 L 138.756 8.28 L 136.986 18.3 C 134.546 19.2 132.096 19.65 129.636 19.65 C 127.176 19.65 125.401 19.16 124.311 18.18 C 123.221 17.2 122.676 15.69 122.676 13.65 C 122.676 12.79 122.816 11.52 123.096 9.84 C 123.696 6.36 124.756 3.85 126.276 2.31 C 127.796 0.77 130.316 0 133.836 0 C 134.576 0 135.521 0.08 136.671 0.24 C 137.821 0.4 138.666 0.58 139.206 0.78 L 137.556 5.37 C 136.056 5.09 134.681 4.95 133.431 4.95 C 132.181 4.95 131.286 5.05 130.746 5.25 C 130.206 5.45 129.886 5.85 129.786 6.45 L 128.316 14.94 L 130.206 14.94 C 130.886 14.94 131.391 14.865 131.721 14.715 C 132.051 14.565 132.266 14.22 132.366 13.68 Z" style="white-space: pre; fill: rgb(255, 255, 255);"/>
  <path d="M 112.986 19.2 L 109.926 12.54 C 109.846 12.4 109.806 12.205 109.806 11.955 C 109.806 11.705 109.826 11.42 109.866 11.1 L 109.626 11.1 L 108.216 19.2 L 102.516 19.2 L 105.816 0.45 L 111.186 0.45 L 114.246 7.11 C 114.306 7.25 114.336 7.445 114.336 7.695 C 114.336 7.945 114.316 8.23 114.276 8.55 L 114.516 8.55 L 115.956 0.45 L 121.656 0.45 L 118.356 19.2 L 112.986 19.2 Z" style="white-space: pre; fill: rgb(255, 255, 255);"/>
  <path d="M 93.276 19.2 L 96.576 0.45 L 102.276 0.45 L 98.976 19.2 L 93.276 19.2 Z" style="white-space: pre; fill: rgb(255, 255, 255);"/>
  <path d="M 93.547 5.25 L 89.407 5.25 L 86.977 19.2 L 81.277 19.2 L 83.707 5.25 L 79.597 5.25 L 80.467 0.45 L 94.417 0.45 L 93.547 5.25 Z" style="white-space: pre; fill: rgb(255, 255, 255);"/>
  <path d="M 69.337 19.2 L 66.277 12.54 C 66.197 12.4 66.157 12.205 66.157 11.955 C 66.157 11.705 66.177 11.42 66.217 11.1 L 65.977 11.1 L 64.567 19.2 L 58.867 19.2 L 62.167 0.45 L 67.537 0.45 L 70.597 7.11 C 70.657 7.25 70.687 7.445 70.687 7.695 C 70.687 7.945 70.667 8.23 70.627 8.55 L 70.867 8.55 L 72.307 0.45 L 78.007 0.45 L 74.707 19.2 L 69.337 19.2 Z" style="white-space: pre; fill: rgb(255, 255, 255);"/>
  <path d="M 49.238 0.45 L 46.748 14.52 L 48.788 14.52 C 49.488 14.52 49.988 14.425 50.288 14.235 C 50.588 14.045 50.798 13.61 50.918 12.93 L 53.138 0.45 L 58.838 0.45 L 56.978 10.98 C 56.678 12.68 56.333 14.05 55.943 15.09 C 55.553 16.13 55.008 17.01 54.308 17.73 C 53.608 18.45 52.743 18.95 51.713 19.23 C 50.683 19.51 49.378 19.65 47.798 19.65 C 45.378 19.65 43.683 19.285 42.713 18.555 C 41.743 17.825 41.258 16.57 41.258 14.79 C 41.258 13.81 41.398 12.54 41.678 10.98 L 43.538 0.45 L 49.238 0.45 Z" style="white-space: pre; fill: rgb(255, 255, 255);"/>
  <path d="M 85.065 32.24 L 80.205 32.24 L 79.005 39.2 L 73.305 39.2 L 76.605 20.45 L 88.305 20.45 L 86.715 25.25 L 81.435 25.25 L 81.015 27.77 L 85.875 27.77 Z M 87.165 39.2 L 90.465 20.45 L 96.165 20.45 L 92.865 39.2 Z M 95.864 38.87 L 97.544 33.92 C 99.224 34.38 100.764 34.61 102.164 34.61 C 103.564 34.61 104.694 34.55 105.554 34.43 L 105.794 32.93 L 103.304 32.69 C 101.404 32.51 100.059 32.08 99.269 31.4 C 98.479 30.72 98.084 29.76 98.084 28.52 C 98.084 27.98 98.144 27.38 98.264 26.72 C 98.724 24.16 99.559 22.4 100.769 21.44 C 101.979 20.48 103.854 20 106.394 20 C 108.934 20 111.174 20.25 113.114 20.75 L 111.554 25.55 C 109.814 25.25 108.414 25.1 107.354 25.1 C 106.294 25.1 105.394 25.15 104.654 25.25 L 104.414 26.72 L 106.424 26.93 C 108.464 27.15 109.914 27.635 110.774 28.385 C 111.634 29.135 112.064 30.14 112.064 31.4 C 112.064 32.68 111.784 34 111.224 35.36 C 110.944 36.06 110.639 36.645 110.309 37.115 C 109.979 37.585 109.559 37.985 109.049 38.315 C 108.539 38.645 108.074 38.895 107.654 39.065 C 107.234 39.235 106.704 39.36 106.064 39.44 C 105.124 39.58 103.974 39.65 102.614 39.65 C 100.134 39.65 97.884 39.39 95.864 38.87 Z M 123.644 39.2 L 124.784 32.57 L 120.494 32.57 L 119.354 39.2 L 113.654 39.2 L 116.954 20.45 L 122.654 20.45 L 121.484 27.08 L 125.774 27.08 L 126.944 20.45 L 132.644 20.45 L 129.344 39.2 Z M 132.914 39.2 L 136.214 20.45 L 141.914 20.45 L 138.614 39.2 Z M 152.623 39.2 L 149.563 32.54 C 149.483 32.4 149.443 32.205 149.443 31.955 C 149.443 31.705 149.463 31.42 149.503 31.1 L 149.263 31.1 L 147.853 39.2 L 142.153 39.2 L 145.453 20.45 L 150.823 20.45 L 153.883 27.11 C 153.943 27.25 153.973 27.445 153.973 27.695 C 153.973 27.945 153.953 28.23 153.913 28.55 L 154.153 28.55 L 155.593 20.45 L 161.293 20.45 L 157.993 39.2 Z M 172.003 33.68 L 172.153 32.87 L 170.713 32.87 L 171.523 28.28 L 178.393 28.28 L 176.623 38.3 C 174.183 39.2 171.733 39.65 169.273 39.65 C 166.813 39.65 165.038 39.16 163.948 38.18 C 162.858 37.2 162.313 35.69 162.313 33.65 C 162.313 32.79 162.453 31.52 162.733 29.84 C 163.333 26.36 164.393 23.85 165.913 22.31 C 167.433 20.77 169.953 20 173.473 20 C 174.213 20 175.158 20.08 176.308 20.24 C 177.458 20.4 178.303 20.58 178.843 20.78 L 177.193 25.37 C 175.693 25.09 174.318 24.95 173.068 24.95 C 171.818 24.95 170.923 25.05 170.383 25.25 C 169.843 25.45 169.523 25.85 169.423 26.45 L 167.953 34.94 L 169.843 34.94 C 170.523 34.94 171.028 34.865 171.358 34.715 C 171.688 34.565 171.903 34.22 172.003 33.68 Z" style="white-space: pre; fill: rgb(255, 255, 255);"/>
</svg>

<svg xmlns="http://www.w3.org/2000/svg" viewBox="0 0 200 40"><path d="M58.13 23.09v3.6q-.01.14-.09.27l-2.1 4.13c-.48.93-.29 1.62.6 2.17q.5.3 1 .63c.1.07.2.2.2.3q.03.88.02 1.92l-4.83-3.02 2.79-5.47q-.14-.07-.27-.18c-.68-.6-1.35-1.23-2.05-1.8a1.9 1.9 0 0 0-2.57.15c-.69.7-.73 1.81-.1 2.57l.16.15.3-.96.08-.01 1.43 3.4-.07.04q-.11-.05-.2-.13-1-.85-1.97-1.74a2.65 2.65 0 0 1 3.49-3.97q1.03.9 2.08 1.85l2.01-3.93zM66.54 31l1.44-3.45h.07l.31.94c1.05-.91.68-2.68-.64-3.16a1.8 1.8 0 0 0-1.9.33l-2.38 2.1 2.71 5.33-4.76 2.98c0-.53.04-.99 0-1.44q-.1-.71.55-1c.25-.1.47-.28.7-.43.74-.48.96-1.21.56-2l-2.03-4q-.16-.33-.18-.71v-3.33l.08-.03 2.02 3.95.26-.2c.66-.58 1.31-1.2 2-1.76a2.62 2.62 0 0 1 4.16 1.07c.39 1.03.21 2-.58 2.8-.7.69-1.48 1.32-2.23 1.97zm-5.96 5.65H58.5v-1.34l-.02-4.49q0-1.33.03-2.66 0-.28.13-.52.2-.41.2-.88-.02-.68 0-1.42h1.4l.05.29v1.15q-.03.44.19.84.12.22.12.48v8.3zm3.55-1.5.63-.4 1.51 1.35.45.4q.28.3.72.23c.81-.11 1.43.55 1.28 1.33-.1.57-.64.98-1.2.93-.6-.05-1.1-.53-1.04-1.1.05-.53-.18-.83-.55-1.14-.6-.5-1.17-1.03-1.8-1.6m3.95 2.7c0-.27-.2-.48-.46-.48a.5.5 0 0 0-.5.49c0 .24.23.47.48.47.26 0 .47-.21.48-.48m-13.64-3.03.7.45-.35.2-1.73 1.54c-.2.18-.3.37-.28.66q.03.27-.04.54a1.14 1.14 0 0 1-2.21-.47c.05-.59.53-1.08 1.12-1 .52.06.84-.17 1.18-.48q.78-.72 1.61-1.44m-2.3 3.03a.5.5 0 0 0-.47-.47.46.46 0 0 0-.48.46c-.01.28.21.5.48.5a.5.5 0 0 0 .48-.49m8.13-13.21h-1.43a7 7 0 0 1 .5-3.43q.08-.11.2-.21c.07.07.17.13.2.21q.47 1.03.52 2.15zm-1.74 13.31v-.66h2.03v.66z" style="fill:#ccc"/><path d="m31.15 19.2 1.14-6.63h-4.3l-1.13 6.63h-5.7L24.46.45h5.7l-1.17 6.63h4.29L34.45.45h5.7l-3.3 18.75z" style="white-space:pre;fill:#fff"/><path d="m142.64 12 .75-4.32h4.44l.83-4.65h4.09l-.84 4.65h4.47l-.75 4.32h-4.47l-.84 4.68h-4.08l.83-4.68z" style="white-space:pre;fill:#ccc"/><path d="m132.37 13.68.15-.81h-1.44l.8-4.59h6.88l-1.77 10.02a21 21 0 0 1-7.35 1.35q-3.7 0-5.33-1.47t-1.63-4.53q0-1.29.42-3.81.9-5.22 3.18-7.53T133.84 0q1.1 0 2.83.24t2.54.54l-1.65 4.59q-2.25-.42-4.13-.42a9 9 0 0 0-2.68.3q-.81.3-.96 1.2l-1.47 8.49h1.89q1.02 0 1.51-.22.5-.24.65-1.04m-19.38 5.52-3.06-6.66a1 1 0 0 1-.12-.58q0-.38.06-.86h-.24l-1.41 8.1h-5.7l3.3-18.75h5.37l3.06 6.66q.09.21.09.59 0 .37-.06.85h.24l1.44-8.1h5.7l-3.3 18.75zm-19.71 0L96.58.45h5.7l-3.3 18.75zm.27-13.95H89.4L86.98 19.2h-5.7L83.7 5.25h-4.1l.87-4.8h13.95zM69.34 19.2l-3.06-6.66a1 1 0 0 1-.12-.58q0-.38.06-.86h-.24l-1.41 8.1h-5.7L62.17.45h5.37l3.06 6.66q.09.21.09.59 0 .37-.06.85h.24L72.3.45H78L74.7 19.2zM49.24.45l-2.5 14.07h2.05q1.05 0 1.5-.29t.63-1.3L53.14.45h5.7l-1.86 10.53q-.45 2.55-1.04 4.11a8 8 0 0 1-1.63 2.64 5.6 5.6 0 0 1-2.6 1.5q-1.54.42-3.91.42-3.63 0-5.09-1.1-1.45-1.1-1.45-3.76 0-1.47.42-3.81L43.54.45zm35.83 31.79H80.2L79 39.2h-5.7l3.3-18.75h11.7l-1.6 4.8h-5.27l-.42 2.52h4.86Zm2.1 6.96 3.3-18.75h5.7l-3.3 18.75Zm8.7-.33 1.67-4.95q2.52.69 4.62.69t3.4-.18l.23-1.5-2.49-.24q-2.85-.27-4.03-1.29a3.6 3.6 0 0 1-1.19-2.88q0-.81.18-1.8.7-3.84 2.5-5.28Q102.6 20 106.4 20q3.81 0 6.72.75l-1.56 4.8q-2.61-.45-4.2-.45t-2.7.15l-.24 1.47 2.01.21q3.07.32 4.35 1.46a3.8 3.8 0 0 1 1.3 3.01q0 1.92-.85 3.96-.42 1.05-.91 1.76-.5.7-1.26 1.2-.77.5-1.4.74-.63.26-1.59.38-1.41.21-3.45.21-3.72 0-6.75-.78m27.77.33 1.14-6.63h-4.29l-1.14 6.63h-5.7l3.3-18.75h5.7l-1.17 6.63h4.3l1.16-6.63h5.7l-3.3 18.75Zm9.27 0 3.3-18.75h5.7l-3.3 18.75Zm19.71 0-3.06-6.66a1 1 0 0 1-.12-.59q0-.37.06-.85h-.24l-1.4 8.1h-5.7l3.3-18.75h5.36l3.06 6.66q.1.21.1.59 0 .37-.07.85h.24l1.44-8.1h5.7L158 39.2ZM172 33.68l.15-.81h-1.44l.81-4.59h6.87l-1.77 10.02a21 21 0 0 1-7.35 1.35q-3.69 0-5.32-1.47t-1.64-4.53q0-1.29.42-3.81.9-5.22 3.18-7.53t7.56-2.31q1.11 0 2.84.24t2.53.54l-1.65 4.59q-2.25-.42-4.12-.42a9 9 0 0 0-2.69.3q-.81.3-.96 1.2l-1.47 8.49h1.9q1.01 0 1.5-.22.5-.23.65-1.04" style="white-space:pre;fill:#fff"/></svg>
